img/icons/Facebook.svg

<svg width="34" height="34" viewBox="0 0 34 34" fill="none" xmlns="http://www.w3.org/2000/svg">
<path d="M18.9791 29.7458V18.1347H22.8962L23.4784 13.5887H18.9791V10.693C18.9791 9.38116 19.3446 8.483 21.2273 8.483H23.613V4.42991C22.4522 4.30552 21.2855 4.24545 20.1181 4.25C16.6557 4.25 14.2786 6.36366 14.2786 10.2439V13.5802H10.387V18.1262H14.2871V29.7458H18.9791Z" fill="white" fill-opacity="0.78"/>
</svg>

<svg xmlns="http://www.w3.org/2000/svg" width="34" height="34" fill="none"><path fill="#fff" fill-opacity=".78" d="M18.98 29.75V18.13h3.92l.58-4.54h-4.5v-2.9c0-1.3.36-2.2 2.25-2.2h2.38V4.42a31.64 31.64 0 0 0-3.5-.18c-3.45 0-5.83 2.11-5.83 6v3.33h-3.9v4.55h3.9v11.62h4.7Z"/></svg>
